X:1747
T:Väntanpolska, stämma
R:Polska
C:Anton Teljebäck
Z:Anton Teljebäck
M:3/4
L:1/16
K:Dm
|:FGAc defe fedc | d2ed edcd e4 | f3e def^f g3^g | a=g=fe fedc A4 |
FAce fefe dcde | f2fe fede f3g | _agfe fede fedc | A2cA G2E2 D4 :| 
DGdG DGdG DGdG | DFcF DFcF DFcF | D^F=BF DFBF DFBF | D^F^cF DFcF DFcF |
=FAce fefe dcde | f2fe fede f3g | _agfe fede fedc | A2cA G2E2 D4 :| 

(:musicend:)




(:music:)
